Newaita-dark/.places-mint/32/folder-publicshare.svg

<?xml version="1.0" encoding="UTF-8"?>
<svg xmlns="http://www.w3.org/2000/svg" xmlns:xlink="http://www.w3.org/1999/xlink" width="32px" height="32px" viewBox="0 0 32 32" version="1.1">
<defs>
<linearGradient id="linear0" gradientUnits="userSpaceOnUse" x1="254" y1="233.5" x2="254" y2="254.666672" gradientTransform="matrix(0.062506,0,0,0.062506,-0.00000381506,13.438787)">
<stop offset="0" style="stop-color:rgb(0%,0%,0%);stop-opacity:0.27451;"/>
<stop offset="1" style="stop-color:rgb(0%,0%,0%);stop-opacity:0;"/>
</linearGradient>
<radialGradient id="radial0" gradientUnits="userSpaceOnUse" cx="450.908936" cy="189.579361" fx="450.908936" fy="189.579361" r="21.166656" gradientTransform="matrix(0.00000017417,-0.0781325,-0.140638,-0.000000101539,54.115213,63.595334)">
<stop offset="0" style="stop-color:rgb(0%,0%,0%);stop-opacity:0.313726;"/>
<stop offset="0.222222" style="stop-color:rgb(0%,0%,0%);stop-opacity:0.27451;"/>
<stop offset="1" style="stop-color:rgb(0%,0%,0%);stop-opacity:0;"/>
</radialGradient>
<radialGradient id="radial1" gradientUnits="userSpaceOnUse" cx="450.908936" cy="189.579361" fx="450.908936" fy="189.579361" r="21.166656" gradientTransform="matrix(-0.00000017417,0.0781325,0.140638,0.000000101539,-22.362178,-7.527477)">
<stop offset="0" style="stop-color:rgb(0%,0%,0%);stop-opacity:0.313726;"/>
<stop offset="0.222222" style="stop-color:rgb(0%,0%,0%);stop-opacity:0.27451;"/>
<stop offset="1" style="stop-color:rgb(0%,0%,0%);stop-opacity:0;"/>
</radialGradient>
<radialGradient id="radial2" gradientUnits="userSpaceOnUse" cx="450.908936" cy="189.579361" fx="450.908936" fy="189.579361" r="21.166656" gradientTransform="matrix(-0.00000017417,-0.0781325,0.140638,-0.000000101539,-22.362178,63.595334)">
<stop offset="0" style="stop-color:rgb(0%,0%,0%);stop-opacity:0.313726;"/>
<stop offset="0.222222" style="stop-color:rgb(0%,0%,0%);stop-opacity:0.27451;"/>
<stop offset="1" style="stop-color:rgb(0%,0%,0%);stop-opacity:0;"/>
</radialGradient>
<radialGradient id="radial3" gradientUnits="userSpaceOnUse" cx="450.908936" cy="189.579361" fx="450.908936" fy="189.579361" r="21.166656" gradientTransform="matrix(0.00000017417,0.0781325,-0.140638,0.000000101539,54.115211,-7.527477)">
<stop offset="0" style="stop-color:rgb(0%,0%,0%);stop-opacity:0.313726;"/>
<stop offset="0.222222" style="stop-color:rgb(0%,0%,0%);stop-opacity:0.27451;"/>
<stop offset="1" style="stop-color:rgb(0%,0%,0%);stop-opacity:0;"/>
</radialGradient>
<linearGradient id="linear1" gradientUnits="userSpaceOnUse" x1="254" y1="-147.5" x2="254" y2="-31.083334" gradientTransform="matrix(0.062506,0,0,0.062506,0.00000124975,13.438781)">
<stop offset="0" style="stop-color:rgb(64.313728%,64.313728%,64.313728%);stop-opacity:0;"/>
<stop offset="1" style="stop-color:rgb(100%,100%,100%);stop-opacity:0.196078;"/>
</linearGradient>
<linearGradient id="linear2" gradientUnits="userSpaceOnUse" x1="254" y1="233.5" x2="254" y2="-105.166656" gradientTransform="matrix(0.062506,0,0,0.062506,-0.00000181239,13.438783)">
<stop offset="0" style="stop-color:rgb(34.509805%,34.509805%,34.509805%);stop-opacity:0;"/>
<stop offset="1" style="stop-color:rgb(98.039216%,98.039216%,98.039216%);stop-opacity:0.196078;"/>
</linearGradient>
</defs>
<g id="surface1">
<path style=" stroke:none;fill-rule:nonzero;fill:url(#linear0);" d="M 3.96875 28.035156 L 27.785156 28.035156 L 27.785156 29.355469 L 3.96875 29.355469 Z M 3.96875 28.035156 "/>
<path style=" stroke:none;fill-rule:nonzero;fill:url(#radial0);" d="M 27.785156 28.035156 L 30.429688 28.035156 L 30.429688 26.710938 L 27.785156 26.710938 Z M 27.785156 28.035156 "/>
<path style=" stroke:none;fill-rule:nonzero;fill:url(#radial1);" d="M 3.96875 28.035156 L 1.324219 28.035156 L 1.324219 29.355469 L 3.96875 29.355469 Z M 3.96875 28.035156 "/>
<path style=" stroke:none;fill-rule:nonzero;fill:url(#radial2);" d="M 3.96875 28.035156 L 1.324219 28.035156 L 1.324219 26.710938 L 3.96875 26.710938 Z M 3.96875 28.035156 "/>
<path style=" stroke:none;fill-rule:nonzero;fill:url(#radial3);" d="M 27.785156 28.035156 L 30.429688 28.035156 L 30.429688 29.355469 L 27.785156 29.355469 Z M 27.785156 28.035156 "/>
<path style=" stroke:none;fill-rule:nonzero;fill:rgb(61.176473%,80.000001%,39.607844%);fill-opacity:1;" d="M 7.277344 4.21875 L 28.777344 4.21875 C 29.507812 4.21875 30.097656 4.8125 30.097656 5.542969 L 30.097656 10.503906 C 30.097656 11.234375 29.507812 11.828125 28.777344 11.828125 L 7.277344 11.828125 C 6.546875 11.828125 5.953125 11.234375 5.953125 10.503906 L 5.953125 5.542969 C 5.953125 4.8125 6.546875 4.21875 7.277344 4.21875 Z M 7.277344 4.21875 "/>
<path style=" stroke:none;fill-rule:nonzero;fill:url(#linear1);" d="M 7.277344 4.21875 L 28.777344 4.21875 C 29.507812 4.21875 30.097656 4.8125 30.097656 5.542969 L 30.097656 10.503906 C 30.097656 11.234375 29.507812 11.828125 28.777344 11.828125 L 7.277344 11.828125 C 6.546875 11.828125 5.953125 11.234375 5.953125 10.503906 L 5.953125 5.542969 C 5.953125 4.8125 6.546875 4.21875 7.277344 4.21875 Z M 7.277344 4.21875 "/>
<path style=" stroke:none;fill-rule:nonzero;fill:rgb(100%,100%,100%);fill-opacity:0.392157;" d="M 7.277344 4.308594 C 6.542969 4.308594 5.953125 4.898438 5.953125 5.628906 L 5.953125 5.796875 C 5.953125 5.0625 6.542969 4.472656 7.277344 4.472656 L 28.777344 4.472656 C 29.507812 4.472656 30.097656 5.0625 30.097656 5.796875 L 30.097656 5.628906 C 30.097656 4.898438 29.507812 4.308594 28.777344 4.308594 Z M 7.277344 4.308594 "/>
<path style=" stroke:none;fill-rule:nonzero;fill:rgb(12.941177%,12.941177%,12.941177%);fill-opacity:1;" d="M 7.277344 4.125 C 6.492188 4.125 5.859375 4.757812 5.859375 5.542969 L 5.859375 10.503906 C 5.859375 11.285156 6.492188 11.921875 7.277344 11.921875 L 28.777344 11.921875 C 29.558594 11.921875 30.191406 11.285156 30.191406 10.503906 L 30.191406 5.542969 C 30.191406 4.757812 29.558594 4.125 28.777344 4.125 Z M 7.277344 4.3125 L 28.777344 4.3125 C 29.457031 4.3125 30.003906 4.859375 30.003906 5.542969 L 30.003906 10.503906 C 30.003906 11.1875 29.457031 11.734375 28.777344 11.734375 L 7.277344 11.734375 C 6.59375 11.734375 6.046875 11.1875 6.046875 10.503906 L 6.046875 5.542969 C 6.046875 4.859375 6.59375 4.3125 7.277344 4.3125 Z M 7.277344 4.3125 "/>
<path style=" stroke:none;fill-rule:nonzero;fill:rgb(68.235296%,83.529413%,50.588238%);fill-opacity:1;" d="M 2.644531 6.863281 C 1.914062 6.863281 1.324219 7.457031 1.324219 8.1875 L 1.324219 26.710938 C 1.324219 27.445312 1.914062 28.035156 2.644531 28.035156 L 29.105469 28.035156 C 29.839844 28.035156 30.429688 27.445312 30.429688 26.710938 L 30.429688 10.171875 L 12.570312 10.171875 C 11.835938 10.171875 11.246094 9.582031 11.246094 8.851562 L 11.246094 6.863281 Z M 2.644531 6.863281 "/>
<path style=" stroke:none;fill-rule:nonzero;fill:url(#linear2);" d="M 2.644531 6.863281 C 1.914062 6.863281 1.324219 7.457031 1.324219 8.1875 L 1.324219 26.710938 C 1.324219 27.445312 1.914062 28.035156 2.644531 28.035156 L 29.105469 28.035156 C 29.839844 28.035156 30.429688 27.445312 30.429688 26.710938 L 30.429688 10.171875 L 12.570312 10.171875 C 11.835938 10.171875 11.246094 9.582031 11.246094 8.851562 L 11.246094 6.863281 Z M 2.644531 6.863281 "/>
<path style=" stroke:none;fill-rule:nonzero;fill:rgb(0%,0%,0%);fill-opacity:0.196078;" d="M 2.644531 28.035156 C 1.914062 28.035156 1.324219 27.445312 1.324219 26.710938 L 1.324219 26.546875 C 1.324219 27.277344 1.914062 27.867188 2.644531 27.867188 L 29.105469 27.867188 C 29.839844 27.867188 30.429688 27.277344 30.429688 26.546875 L 30.429688 26.710938 C 30.429688 27.445312 29.839844 28.035156 29.105469 28.035156 Z M 2.644531 28.035156 "/>
<path style=" stroke:none;fill-rule:nonzero;fill:rgb(100%,100%,100%);fill-opacity:0.392157;" d="M 2.644531 6.953125 C 1.914062 6.953125 1.324219 7.542969 1.324219 8.277344 L 1.324219 8.441406 C 1.324219 7.707031 1.914062 7.117188 2.644531 7.117188 L 11.246094 7.117188 L 11.246094 6.953125 Z M 2.644531 6.953125 "/>
<path style=" stroke:none;fill-rule:nonzero;fill:rgb(100%,100%,100%);fill-opacity:0.392157;" d="M 12.484375 10.34375 C 11.753906 10.34375 11.164062 9.753906 11.164062 9.019531 L 11.164062 8.855469 C 11.164062 9.585938 11.753906 10.179688 12.484375 10.179688 L 30.429688 10.179688 L 30.429688 10.34375 Z M 12.484375 10.34375 "/>
<path style=" stroke:none;fill-rule:nonzero;fill:rgb(12.941177%,12.941177%,12.941177%);fill-opacity:1;" d="M 2.644531 6.769531 C 1.863281 6.769531 1.230469 7.40625 1.230469 8.1875 L 1.230469 26.710938 C 1.230469 27.496094 1.863281 28.128906 2.644531 28.128906 L 29.105469 28.128906 C 29.890625 28.128906 30.523438 27.496094 30.523438 26.710938 L 30.523438 9.984375 L 12.570312 9.984375 C 11.886719 9.984375 11.339844 9.4375 11.339844 8.757812 L 11.339844 6.769531 Z M 2.644531 6.960938 L 11.152344 6.960938 L 11.152344 8.757812 C 11.152344 9.539062 11.785156 10.171875 12.570312 10.171875 L 30.335938 10.171875 L 30.335938 26.710938 C 30.335938 27.394531 29.789062 27.941406 29.105469 27.941406 L 2.644531 27.941406 C 1.964844 27.941406 1.417969 27.394531 1.417969 26.710938 L 1.417969 8.1875 C 1.417969 7.503906 1.964844 6.960938 2.644531 6.960938 Z M 2.644531 6.960938 "/>
<path style=" stroke:none;fill-rule:nonzero;fill:rgb(54.509807%,76.47059%,29.019609%);fill-opacity:1;" d="M 15.875 12.808594 C 14.59375 12.808594 13.5625 13.839844 13.5625 15.125 C 13.5625 16.40625 14.59375 17.4375 15.875 17.4375 C 17.160156 17.4375 18.191406 16.40625 18.191406 15.125 C 18.191406 13.839844 17.160156 12.808594 15.875 12.808594 Z M 13.984375 17.78125 C 12.746094 18.28125 11.90625 19.269531 11.90625 20.414062 L 11.90625 22.730469 C 11.90625 23.097656 12.203125 23.390625 12.570312 23.390625 L 19.183594 23.390625 C 19.550781 23.390625 19.84375 23.097656 19.84375 22.730469 L 19.84375 20.414062 C 19.84375 19.269531 19.007812 18.28125 17.769531 17.78125 C 17.351562 18.375 16.660156 18.761719 15.875 18.761719 C 15.09375 18.761719 14.402344 18.375 13.984375 17.78125 Z M 13.984375 17.78125 "/>
<path style=" stroke:none;fill-rule:nonzero;fill:rgb(100%,100%,100%);fill-opacity:0.392157;" d="M 13.5625 15.257812 C 13.5625 15.300781 13.5625 15.339844 13.5625 15.378906 C 13.5625 16.664062 14.59375 17.695312 15.875 17.695312 C 17.160156 17.695312 18.191406 16.664062 18.191406 15.378906 C 18.191406 15.339844 18.191406 15.300781 18.1875 15.257812 C 18.125 16.484375 17.117188 17.453125 15.875 17.453125 C 14.632812 17.453125 13.625 16.484375 13.5625 15.257812 Z M 11.90625 22.746094 L 11.90625 22.988281 C 11.90625 23.355469 12.203125 23.648438 12.570312 23.648438 L 19.183594 23.648438 C 19.550781 23.648438 19.84375 23.355469 19.84375 22.988281 L 19.84375 22.746094 C 19.84375 23.113281 19.550781 23.40625 19.183594 23.40625 L 12.570312 23.40625 C 12.203125 23.40625 11.90625 23.113281 11.90625 22.746094 Z M 11.90625 22.746094 "/>
<path style=" stroke:none;fill-rule:nonzero;fill:rgb(0%,0%,0%);fill-opacity:0.235294;" d="M 15.875 12.808594 C 14.59375 12.808594 13.5625 13.839844 13.5625 15.125 C 13.5625 15.167969 13.5625 15.210938 13.566406 15.253906 C 13.632812 14.03125 14.636719 13.066406 15.875 13.066406 C 17.117188 13.066406 18.121094 14.03125 18.1875 15.253906 C 18.191406 15.210938 18.191406 15.167969 18.191406 15.125 C 18.191406 13.839844 17.160156 12.808594 15.875 12.808594 Z M 13.984375 17.78125 C 12.746094 18.28125 11.90625 19.269531 11.90625 20.414062 L 11.90625 20.675781 C 11.90625 19.53125 12.746094 18.539062 13.984375 18.042969 C 14.402344 18.636719 15.09375 19.019531 15.875 19.019531 C 16.660156 19.019531 17.351562 18.636719 17.769531 18.042969 C 19.007812 18.539062 19.84375 19.53125 19.84375 20.675781 L 19.84375 20.414062 C 19.84375 19.269531 19.007812 18.28125 17.769531 17.78125 C 17.351562 18.375 16.660156 18.761719 15.875 18.761719 C 15.09375 18.761719 14.402344 18.375 13.984375 17.78125 Z M 13.984375 17.78125 "/>
<path style=" stroke:none;fill-rule:nonzero;fill:rgb(12.941177%,12.941177%,12.941177%);fill-opacity:1;" d="M 15.875 12.714844 C 14.542969 12.714844 13.46875 13.789062 13.46875 15.125 C 13.46875 16.457031 14.542969 17.53125 15.875 17.53125 C 17.210938 17.53125 18.285156 16.457031 18.285156 15.125 C 18.285156 13.789062 17.210938 12.714844 15.875 12.714844 Z M 15.875 12.902344 C 17.109375 12.902344 18.097656 13.890625 18.097656 15.125 C 18.097656 16.355469 17.109375 17.34375 15.875 17.34375 C 14.644531 17.34375 13.65625 16.355469 13.65625 15.125 C 13.65625 13.890625 14.644531 12.902344 15.875 12.902344 Z M 14.015625 17.667969 L 13.949219 17.695312 C 12.683594 18.207031 11.8125 19.226562 11.8125 20.414062 L 11.8125 22.730469 C 11.8125 23.148438 12.152344 23.484375 12.570312 23.484375 L 19.183594 23.484375 C 19.601562 23.484375 19.941406 23.148438 19.941406 22.730469 L 19.941406 20.414062 C 19.941406 19.226562 19.066406 18.207031 17.804688 17.695312 L 17.734375 17.667969 L 17.691406 17.730469 C 17.292969 18.296875 16.628906 18.667969 15.875 18.667969 C 15.125 18.667969 14.460938 18.296875 14.058594 17.730469 Z M 17.796875 17.898438 C 18.972656 18.394531 19.75 19.335938 19.75 20.414062 L 19.75 22.730469 C 19.75 23.046875 19.5 23.296875 19.183594 23.296875 L 12.570312 23.296875 C 12.253906 23.296875 12 23.046875 12 22.730469 L 12 20.414062 C 12 19.335938 12.78125 18.394531 13.957031 17.898438 C 14.394531 18.480469 15.089844 18.855469 15.875 18.855469 C 16.664062 18.855469 17.355469 18.480469 17.796875 17.898438 Z M 17.796875 17.898438 "/>
</g>
</svg>

<svg xmlns="http://www.w3.org/2000/svg" width="32" height="32"><defs><linearGradient id="a" gradientUnits="userSpaceOnUse" x1="254" y1="233.5" x2="254" y2="254.667" gradientTransform="matrix(.0625 0 0 .0625 0 13.439)"><stop offset="0" stop-opacity=".275"/><stop offset="1" stop-opacity="0"/></linearGradient><radialGradient id="b" gradientUnits="userSpaceOnUse" cx="450.909" cy="189.579" fx="450.909" fy="189.579" r="21.167" gradientTransform="matrix(0 -.07813 -.14064 0 54.115 63.595)"><stop offset="0" stop-opacity=".314"/><stop offset=".222" stop-opacity=".275"/><stop offset="1" stop-opacity="0"/></radialGradient><radialGradient id="c" gradientUnits="userSpaceOnUse" cx="450.909" cy="189.579" fx="450.909" fy="189.579" r="21.167" gradientTransform="matrix(0 .07813 .14064 0 -22.362 -7.527)"><stop offset="0" stop-opacity=".314"/><stop offset=".222" stop-opacity=".275"/><stop offset="1" stop-opacity="0"/></radialGradient><radialGradient id="d" gradientUnits="userSpaceOnUse" cx="450.909" cy="189.579" fx="450.909" fy="189.579" r="21.167" gradientTransform="matrix(0 -.07813 .14064 0 -22.362 63.595)"><stop offset="0" stop-opacity=".314"/><stop offset=".222" stop-opacity=".275"/><stop offset="1" stop-opacity="0"/></radialGradient><radialGradient id="e" gradientUnits="userSpaceOnUse" cx="450.909" cy="189.579" fx="450.909" fy="189.579" r="21.167" gradientTransform="matrix(0 .07813 -.14064 0 54.115 -7.527)"><stop offset="0" stop-opacity=".314"/><stop offset=".222" stop-opacity=".275"/><stop offset="1" stop-opacity="0"/></radialGradient><linearGradient id="f" gradientUnits="userSpaceOnUse" x1="254" y1="-147.5" x2="254" y2="-31.083" gradientTransform="matrix(.0625 0 0 .0625 0 13.439)"><stop offset="0" stop-color="#a4a4a4" stop-opacity="0"/><stop offset="1" stop-color="#fff" stop-opacity=".196"/></linearGradient><linearGradient id="g" gradientUnits="userSpaceOnUse" x1="254" y1="233.5" x2="254" y2="-105.167" gradientTransform="matrix(.0625 0 0 .0625 0 13.439)"><stop offset="0" stop-color="#585858" stop-opacity="0"/><stop offset="1" stop-color="#fafafa" stop-opacity=".196"/></linearGradient><linearGradient id="h" gradientUnits="userSpaceOnUse" x1="254" y1="-147.5" x2="254" y2="233.5" gradientTransform="matrix(.0625 0 0 .0625 0 13.439)"><stop offset="0" stop-color="#a4a4a4" stop-opacity="0"/><stop offset="1" stop-color="#fff" stop-opacity=".196"/></linearGradient></defs><path d="M3.969 28.035h23.816v1.32H3.97zm0 0" fill="url(#a)"/><path d="M27.785 28.035h2.645v-1.324h-2.645zm0 0" fill="url(#b)"/><path d="M3.969 28.035H1.324v1.32H3.97zm0 0" fill="url(#c)"/><path d="M3.969 28.035H1.324v-1.324H3.97zm0 0" fill="url(#d)"/><path d="M27.785 28.035h2.645v1.32h-2.645zm0 0" fill="url(#e)"/><path d="M7.277 4.219h21.5c.73 0 1.32.593 1.32 1.324v4.96c0 .731-.59 1.325-1.32 1.325h-21.5c-.73 0-1.324-.594-1.324-1.324V5.543c0-.73.594-1.324 1.324-1.324zm0 0" fill="#7cb342"/><path d="M7.277 4.219h21.5c.73 0 1.32.593 1.32 1.324v4.96c0 .731-.59 1.325-1.32 1.325h-21.5c-.73 0-1.324-.594-1.324-1.324V5.543c0-.73.594-1.324 1.324-1.324zm0 0" fill="url(#f)"/><path d="M7.277 4.219a1.32 1.32 0 0 0-1.324 1.324v.164c0-.734.59-1.324 1.324-1.324h21.5c.73 0 1.32.59 1.32 1.324v-.164a1.32 1.32 0 0 0-1.32-1.324zm0 0" fill="#e6e6e6" fill-opacity=".588"/><path d="M7.277 4.125c-.785 0-1.418.633-1.418 1.418v4.96c0 .782.633 1.419 1.418 1.419h21.5c.782 0 1.414-.637 1.414-1.418V5.543c0-.785-.632-1.418-1.414-1.418zm0 .188h21.5c.68 0 1.227.546 1.227 1.23v4.96c0 .684-.547 1.231-1.227 1.231h-21.5c-.683 0-1.23-.546-1.23-1.23V5.543c0-.684.547-1.23 1.23-1.23zm0 0" fill="#212121"/><path d="M2.645 6.863c-.73 0-1.32.594-1.32 1.324v18.524c0 .734.59 1.324 1.32 1.324h26.46a1.32 1.32 0 0 0 1.325-1.324V10.17H12.57a1.32 1.32 0 0 1-1.324-1.32V6.864zm0 0" fill="#9ccc65"/><path d="M2.645 6.863c-.73 0-1.32.594-1.32 1.324v18.524c0 .734.59 1.324 1.32 1.324h26.46a1.32 1.32 0 0 0 1.325-1.324V10.17H12.57a1.32 1.32 0 0 1-1.324-1.32V6.864zm0 0" fill="url(#g)"/><path d="M2.645 28.035c-.73 0-1.32-.59-1.32-1.324v-.164c0 .73.59 1.32 1.32 1.32h26.46a1.32 1.32 0 0 0 1.325-1.32v.164a1.32 1.32 0 0 1-1.325 1.324zm0 0" fill-opacity=".196"/><path d="M2.645 6.863c-.73 0-1.32.594-1.32 1.324v.168c0-.734.59-1.324 1.32-1.324h8.601v-.168zm0 0M12.484 10.254c-.73 0-1.32-.59-1.32-1.32v-.168c0 .734.59 1.324 1.32 1.324H30.43v.164zm0 0" fill="#e6e6e6" fill-opacity=".937"/><path d="M2.645 6.77c-.782 0-1.415.636-1.415 1.418V26.71c0 .785.633 1.418 1.415 1.418h26.46c.786 0 1.418-.633 1.418-1.418V9.984H12.57c-.683 0-1.23-.546-1.23-1.226V6.77zm0 .19h8.507v1.798c0 .781.633 1.414 1.418 1.414h17.766V26.71c0 .684-.547 1.23-1.23 1.23H2.644c-.68 0-1.227-.546-1.227-1.23V8.188c0-.684.547-1.227 1.227-1.227zm0 0" fill="#212121"/><path d="M15.875 12.809a2.308 2.308 0 0 0-2.313 2.316 2.307 2.307 0 0 0 2.313 2.313 2.308 2.308 0 0 0 2.316-2.313 2.309 2.309 0 0 0-2.316-2.316zm-1.89 4.972c-1.239.5-2.079 1.489-2.079 2.633v2.316c0 .368.297.66.664.66h6.614c.367 0 .66-.292.66-.66v-2.316c0-1.144-.836-2.133-2.074-2.633-.418.594-1.11.98-1.895.98a2.307 2.307 0 0 1-1.89-.98zm0 0" fill="#7cb342"/><path d="M15.875 12.809a2.308 2.308 0 0 0-2.313 2.316 2.307 2.307 0 0 0 2.313 2.313 2.308 2.308 0 0 0 2.316-2.313 2.309 2.309 0 0 0-2.316-2.316zm-1.89 4.972c-1.239.5-2.079 1.489-2.079 2.633v2.316c0 .368.297.66.664.66h6.614c.367 0 .66-.292.66-.66v-2.316c0-1.144-.836-2.133-2.074-2.633-.418.594-1.11.98-1.895.98a2.307 2.307 0 0 1-1.89-.98zm0 0" fill="url(#h)"/><path d="M15.875 12.715a2.403 2.403 0 0 0-2.406 2.41 2.402 2.402 0 0 0 2.406 2.406 2.403 2.403 0 0 0 2.41-2.406 2.404 2.404 0 0 0-2.41-2.41zm0 .187c1.234 0 2.223.989 2.223 2.223 0 1.23-.989 2.219-2.223 2.219a2.212 2.212 0 0 1-2.219-2.219c0-1.234.989-2.223 2.219-2.223zm-1.86 4.766l-.066.027c-1.265.512-2.136 1.532-2.136 2.72v2.315c0 .418.34.754.757.754h6.614a.755.755 0 0 0 .757-.754v-2.316c0-1.187-.875-2.207-2.136-2.719l-.07-.027-.044.062a2.214 2.214 0 0 1-1.816.938c-.75 0-1.414-.371-1.816-.938zm3.782.23c1.176.497 1.953 1.438 1.953 2.516v2.316c0 .317-.25.567-.566.567H12.57a.565.565 0 0 1-.57-.567v-2.316c0-1.078.781-2.02 1.957-2.516a2.392 2.392 0 0 0 1.918.957 2.4 2.4 0 0 0 1.922-.957zm0 0" fill="#212121"/></svg>
